; generated by PrusaSlicer 2.7.0+win64 on 2023-12-15 at 11:30:25 UTC

; 

; external perimeters extrusion width = 0.38mm
; perimeters extrusion width = 0.38mm
; infill extrusion width = 0.45mm
; solid infill extrusion width = 0.45mm
; top infill extrusion width = 0.44mm
; support material extrusion width = 0.40mm
; first layer extrusion width = 0.40mm

; external perimeters extrusion width = 0.38mm
; perimeters extrusion width = 0.38mm
; infill extrusion width = 0.45mm
; solid infill extrusion width = 0.45mm
; top infill extrusion width = 0.44mm
; support material extrusion width = 0.40mm
; first layer extrusion width = 0.40mm

; external perimeters extrusion width = 0.38mm
; perimeters extrusion width = 0.38mm
; infill extrusion width = 0.45mm
; solid infill extrusion width = 0.45mm
; top infill extrusion width = 0.44mm
; support material extrusion width = 0.40mm
; first layer extrusion width = 0.40mm


; printing object Corps2.stl id:2 copy 0
; stop printing object Corps2.stl id:2 copy 0
; printing object Texte embossé id:1 copy 0
; stop printing object Texte embossé id:1 copy 0
; printing object Texte embossé id:0 copy 0
; stop printing object Texte embossé id:0 copy 0

M190 S55 ; set bed temperature and wait for it to be reached
M104 S210 ; set temperature
;TYPE:Custom
print_start EXTRUDER=210 BED=55
M109 S210 ; set temperature and wait for it to be reached
G21 ; set units to millimeters
G90 ; use absolute coordinates
M83 ; use relative distances for extrusion
;Filament gcode
M107 ; disable fan
;LAYER_CHANGE
;Z:0.24
;HEIGHT:0.24
G1 Z.24 F30000 ; move to next layer (0)
; printing object Texte embossé id:0 copy 0
G1 E-.75 F3000 ; retract
G1 X239.233 Y14.211 F30000 ; move to print after unknown position
G1 Z.24 ; move to print after unknown position
G1 E.75 F1800 ;  ; unretract
M204 S4000 ; adjust acceleration
;TYPE:External perimeter
;WIDTH:0.406806
G1 F4800
G1 X239.233 Y14.388 E.00565 ; perimeter
G1 X32.52 Y14.388 E6.59558 ; perimeter
G1 X32.52 Y14.033 E.01133 ; perimeter
G1 X239.233 Y14.033 E6.59558 ; perimeter
G1 X239.233 Y14.151 E.00377 ; perimeter
G1 X238.96 Y14.443 F30000 ; move inwards before travel
; stop printing object Texte embossé id:0 copy 0
G1 E-.75 F3000 ; retract
G1 X169.736 Y47.75 F30000 ; move to origin position for next object
M104 S210 ; set temperature
M107 ; disable fan
;LAYER_CHANGE
;Z:0.24
;HEIGHT:0.24
; printing object Texte embossé id:1 copy 0
G1 X239.889 Y47.75 F30000 ; move to first perimeter point
G1 E.75 F1800 ;  ; unretract
G1 F4800
G1 X239.889 Y47.928 E.00568 ; perimeter
G1 X99.582 Y47.928 E4.47677 ; perimeter
G1 X99.582 Y47.573 E.01133 ; perimeter
G1 X239.889 Y47.573 E4.47677 ; perimeter
G1 X239.889 Y47.69 E.00373 ; perimeter
G1 X239.616 Y47.983 F30000 ; move inwards before travel
; stop printing object Texte embossé id:1 copy 0
G1 E-.75 F3000 ; retract
G1 X163.082 Y164.34 F30000 ; move to origin position for next object
M104 S210 ; set temperature
M107 ; disable fan
;LAYER_CHANGE
;Z:0.24
;HEIGHT:0.24
; printing object Corps2.stl id:2 copy 0
G1 X203.957 Y224.216 F30000 ; move to first perimeter point
G1 E.75 F1800 ;  ; unretract
;TYPE:Perimeter
;WIDTH:0.399999
G1 F4800
G1 X122.027 Y224.213 E2.56405 ; perimeter
G1 X122.027 Y104.466 E3.74756 ; perimeter
G1 X203.957 Y104.464 E2.56405 ; perimeter
G1 X203.957 Y106.979 E.07871 ; perimeter
G1 X203.957 Y224.156 E3.66713 ; perimeter
G1 X204.306 Y224.564 F30000 ; move to first perimeter point
G1 F4800
G1 X121.678 Y224.562 E2.5859 ; perimeter
G1 X121.678 Y104.118 E3.76938 ; perimeter
G1 X204.306 Y104.116 E2.5859 ; perimeter
G1 X204.306 Y106.979 E.0896 ; perimeter
G1 X204.306 Y224.504 E3.67802 ; perimeter
G1 X204.654 Y224.913 F30000 ; move to first perimeter point
G1 F4800
G1 X121.33 Y224.91 E2.60768 ; perimeter
G1 X121.33 Y103.769 E3.79119 ; perimeter
G1 X204.654 Y103.767 E2.60768 ; perimeter
G1 X204.654 Y106.979 E.10052 ; perimeter
G1 X204.654 Y224.853 E3.68895 ; perimeter
G1 X205.003 Y225.261 F30000 ; move to first perimeter point
;TYPE:External perimeter
G1 F4800
G1 X120.982 Y225.259 E2.62949 ; perimeter
G1 X120.982 Y103.421 E3.813 ; perimeter
G1 X205.003 Y103.419 E2.62949 ; perimeter
G1 X205.003 Y106.979 E.11141 ; perimeter
G1 X205.003 Y225.201 E3.69984 ; perimeter
G1 X204.607 Y225.26 F30000 ; move inwards before travel
G1 E-.75 F3000 ; retract
G1 X179.975 Y125.243 F30000 ; move to first perimeter point
G1 E.75 F1800 ;  ; unretract
;TYPE:Perimeter
G1 F4800
G1 X179.797 Y125.275 E.00566 ; perimeter
G1 X165.366 Y125.275 E.45163 ; perimeter
G1 X165.07 Y125.239 E.00933 ; perimeter
G1 X164.634 Y125.031 E.01512 ; perimeter
G1 X164.453 Y124.864 E.00771 ; perimeter
G1 X164.293 Y124.635 E.00874 ; perimeter
G1 X164.164 Y124.266 E.01223 ; perimeter
G1 X164.146 Y124.056 E.0066 ; perimeter
G1 X164.146 Y109.624 E.45166 ; perimeter
G1 X164.184 Y109.323 E.00949 ; perimeter
G1 X164.29 Y109.049 E.00919 ; perimeter
G1 X164.448 Y108.82 E.00871 ; perimeter
G1 X164.636 Y108.647 E.008 ; perimeter
G1 X164.851 Y108.518 E.00785 ; perimeter
G1 X165.155 Y108.423 E.00997 ; perimeter
G1 X165.366 Y108.404 E.00663 ; perimeter
G1 X179.797 Y108.404 E.45163 ; perimeter
G1 X180.127 Y108.45 E.01043 ; perimeter
G1 X180.422 Y108.577 E.01005 ; perimeter
G1 X180.659 Y108.76 E.00937 ; perimeter
G1 X180.943 Y109.206 E.01655 ; perimeter
G1 X181.009 Y109.55 E.01096 ; perimeter
G1 X181.356 Y109.494 E.011 ; perimeter
G1 X201.807 Y109.494 E.64003 ; perimeter
G1 X202.149 Y109.543 E.01081 ; perimeter
G1 X202.539 Y109.738 E.01365 ; perimeter
G1 X202.883 Y110.14 E.01656 ; perimeter
G1 X203.027 Y110.714 E.01852 ; perimeter
G1 X203.027 Y118.166 E.23322 ; perimeter
G1 X203.009 Y118.376 E.0066 ; perimeter
G1 X202.898 Y118.711 E.01104 ; perimeter
G1 X202.582 Y119.108 E.01588 ; perimeter
G1 X202.211 Y119.316 E.01331 ; perimeter
G1 X201.807 Y119.385 E.01283 ; perimeter
G1 X200.017 Y119.385 E.05602 ; perimeter
G1 X200.017 Y133.294 E.43529 ; perimeter
G1 X201.807 Y133.294 E.05602 ; perimeter
G1 X202.211 Y133.363 E.01283 ; perimeter
G1 X202.582 Y133.572 E.01333 ; perimeter
G1 X202.898 Y133.968 E.01586 ; perimeter
G1 X203.027 Y134.514 E.01756 ; perimeter
G1 X203.027 Y141.966 E.23322 ; perimeter
G1 X203.009 Y142.176 E.0066 ; perimeter
G1 X202.883 Y142.54 E.01205 ; perimeter
G1 X202.539 Y142.941 E.01653 ; perimeter
G1 X202.149 Y143.137 E.01366 ; perimeter
G1 X201.803 Y143.185 E.01093 ; perimeter
G1 X181.356 Y143.185 E.6399 ; perimeter
G1 X181.009 Y143.129 E.011 ; perimeter
G1 X180.943 Y143.474 E.01099 ; perimeter
G1 X180.695 Y143.881 E.01492 ; perimeter
G1 X180.38 Y144.127 E.01251 ; perimeter
G1 X180.117 Y144.233 E.00887 ; perimeter
G1 X179.797 Y144.275 E.0101 ; perimeter
G1 X165.366 Y144.275 E.45163 ; perimeter
G1 X165.07 Y144.239 E.00933 ; perimeter
G1 X164.634 Y144.031 E.01512 ; perimeter
G1 X164.39 Y143.787 E.0108 ; perimeter
G1 X164.182 Y143.351 E.01512 ; perimeter
G1 X164.146 Y143.056 E.0093 ; perimeter
G1 X164.146 Y128.624 E.45166 ; perimeter
G1 X164.182 Y128.328 E.00933 ; perimeter
G1 X164.39 Y127.892 E.01512 ; perimeter
G1 X164.634 Y127.648 E.0108 ; perimeter
G1 X165.07 Y127.441 E.0151 ; perimeter
G1 X165.366 Y127.404 E.00934 ; perimeter
G1 X179.797 Y127.404 E.45163 ; perimeter
G1 X180.226 Y127.482 E.01365 ; perimeter
G1 X180.529 Y127.648 E.01081 ; perimeter
G1 X180.773 Y127.892 E.0108 ; perimeter
G1 X180.951 Y128.228 E.0119 ; perimeter
G1 X181.017 Y128.624 E.01256 ; perimeter
G1 X181.017 Y133.407 E.14969 ; perimeter
G1 X181.356 Y133.294 E.01118 ; perimeter
G1 X183.146 Y133.294 E.05602 ; perimeter
G1 X183.146 Y119.385 E.43529 ; perimeter
G1 X181.356 Y119.385 E.05602 ; perimeter
G1 X181.017 Y119.272 E.01118 ; perimeter
G1 X181.017 Y124.056 E.14972 ; perimeter
G1 X180.951 Y124.451 E.01253 ; perimeter
G1 X180.773 Y124.787 E.0119 ; perimeter
G1 X180.529 Y125.031 E.0108 ; perimeter
G1 X180.226 Y125.198 E.01083 ; perimeter
G1 X180.034 Y125.232 E.0061 ; perimeter
G1 X179.916 Y124.905 F30000 ; move to first perimeter point
G1 F4800
G1 X179.797 Y124.927 E.00379 ; perimeter
G1 X165.366 Y124.927 E.45163 ; perimeter
G1 X165.154 Y124.901 E.00668 ; perimeter
G1 X164.843 Y124.753 E.01078 ; perimeter
G1 X164.599 Y124.47 E.01169 ; perimeter
G1 X164.508 Y124.206 E.00874 ; perimeter
G1 X164.495 Y124.056 E.00471 ; perimeter
G1 X164.495 Y109.624 E.45166 ; perimeter
G1 X164.521 Y109.409 E.00678 ; perimeter
G1 X164.71 Y109.05 E.0127 ; perimeter
G1 X164.998 Y108.834 E.01127 ; perimeter
G1 X165.366 Y108.753 E.01179 ; perimeter
G1 X179.797 Y108.753 E.45163 ; perimeter
G1 X180.033 Y108.785 E.00745 ; perimeter
G1 X180.244 Y108.876 E.00719 ; perimeter
G1 X180.412 Y109.007 E.00667 ; perimeter
G1 X180.616 Y109.325 E.01182 ; perimeter
G1 X180.669 Y109.624 E.0095 ; perimeter
G1 X180.669 Y110.451 E.02588 ; perimeter
G1 X181.057 Y109.896 E.02119 ; perimeter
G1 X181.356 Y109.843 E.0095 ; perimeter
G1 X201.807 Y109.843 E.64003 ; perimeter
G1 X202.051 Y109.878 E.00771 ; perimeter
G1 X202.33 Y110.017 E.00976 ; perimeter
G1 X202.576 Y110.304 E.01183 ; perimeter
G1 X202.678 Y110.714 E.01322 ; perimeter
G1 X202.678 Y118.166 E.23322 ; perimeter
G1 X202.586 Y118.556 E.01254 ; perimeter
G1 X202.36 Y118.839 E.01133 ; perimeter
G1 X202.096 Y118.988 E.00949 ; perimeter
G1 X201.807 Y119.037 E.00917 ; perimeter
G1 X199.581 Y119.037 E.06966 ; perimeter
G1 X199.669 Y119.124 E.00387 ; perimeter
G1 X199.669 Y133.556 E.45166 ; perimeter
G1 X199.595 Y133.643 E.00357 ; perimeter
G1 X201.807 Y133.643 E.06923 ; perimeter
G1 X202.096 Y133.692 E.00917 ; perimeter
G1 X202.36 Y133.841 E.00949 ; perimeter
G1 X202.586 Y134.124 E.01133 ; perimeter
G1 X202.678 Y134.514 E.01254 ; perimeter
G1 X202.678 Y141.966 E.23322 ; perimeter
G1 X202.576 Y142.376 E.01322 ; perimeter
G1 X202.33 Y142.663 E.01183 ; perimeter
G1 X202.051 Y142.802 E.00976 ; perimeter
G1 X201.803 Y142.837 E.00784 ; perimeter
G1 X181.356 Y142.837 E.6399 ; perimeter
G1 X181.057 Y142.784 E.0095 ; perimeter
G1 X180.669 Y142.32 E.01893 ; perimeter
G1 X180.669 Y143.056 E.02303 ; perimeter
G1 X180.616 Y143.354 E.00947 ; perimeter
G1 X180.348 Y143.731 E.01448 ; perimeter
G1 X180.026 Y143.896 E.01132 ; perimeter
G1 X179.797 Y143.927 E.00723 ; perimeter
G1 X165.366 Y143.927 E.45163 ; perimeter
G1 X165.154 Y143.901 E.00668 ; perimeter
G1 X164.843 Y143.753 E.01078 ; perimeter
G1 X164.669 Y143.578 E.00772 ; perimeter
G1 X164.521 Y143.267 E.01078 ; perimeter
G1 X164.495 Y143.056 E.00665 ; perimeter
G1 X164.495 Y128.624 E.45166 ; perimeter
G1 X164.587 Y128.234 E.01254 ; perimeter
G1 X164.75 Y128.008 E.00872 ; perimeter
G1 X164.976 Y127.845 E.00872 ; perimeter
G1 X165.29 Y127.756 E.01021 ; perimeter
G1 X165.366 Y127.753 E.00238 ; perimeter
G1 X179.797 Y127.753 E.45163 ; perimeter
G1 X180.103 Y127.808 E.00973 ; perimeter
G1 X180.32 Y127.927 E.00775 ; perimeter
G1 X180.494 Y128.101 E.0077 ; perimeter
G1 X180.621 Y128.342 E.00853 ; perimeter
G1 X180.669 Y128.624 E.00895 ; perimeter
G1 X180.669 Y134.146 E.17281 ; perimeter
G1 X180.833 Y133.817 E.0115 ; perimeter
G1 X181.356 Y133.643 E.01725 ; perimeter
G1 X183.582 Y133.643 E.06966 ; perimeter
G1 X183.495 Y133.556 E.00385 ; perimeter
G1 X183.495 Y119.124 E.45166 ; perimeter
G1 X183.568 Y119.037 E.00355 ; perimeter
G1 X181.356 Y119.037 E.06923 ; perimeter
G1 X180.833 Y118.863 E.01725 ; perimeter
G1 X180.669 Y118.595 E.00983 ; perimeter
G1 X180.669 Y124.056 E.17091 ; perimeter
G1 X180.621 Y124.338 E.00895 ; perimeter
G1 X180.494 Y124.578 E.0085 ; perimeter
G1 X180.32 Y124.753 E.00772 ; perimeter
G1 X180.103 Y124.871 E.00773 ; perimeter
G1 X179.975 Y124.895 E.00408 ; perimeter
G1 X179.856 Y124.568 F30000 ; move to first perimeter point
G1 F4800
G1 X179.797 Y124.578 E.00187 ; perimeter
G1 X165.366 Y124.578 E.45163 ; perimeter
G1 X165.132 Y124.523 E.00752 ; perimeter
G1 X164.975 Y124.402 E.0062 ; perimeter
G1 X164.851 Y124.146 E.0089 ; perimeter
G1 X164.843 Y124.056 E.00283 ; perimeter
G1 X164.843 Y109.624 E.45166 ; perimeter
G1 X164.905 Y109.377 E.00797 ; perimeter
G1 X164.973 Y109.28 E.00371 ; perimeter
G1 X165.145 Y109.15 E.00675 ; perimeter
G1 X165.366 Y109.101 E.00708 ; perimeter
G1 X179.797 Y109.101 E.45163 ; perimeter
G1 X180.065 Y109.175 E.0087 ; perimeter
G1 X180.166 Y109.254 E.00401 ; perimeter
G1 X180.309 Y109.517 E.00937 ; perimeter
G1 X180.32 Y109.624 E.00337 ; perimeter
;WIDTH:0.441123
G1 X180.341 Y110.169 E.01908 ; perimeter
;WIDTH:0.482246
G1 X180.361 Y110.714 E.0211 ; perimeter
G1 X180.361 Y118.166 E.28826 ; perimeter
G1 X180.341 Y118.555 E.01507 ; perimeter
;WIDTH:0.441123
G1 X180.32 Y118.945 E.01367 ; perimeter
;WIDTH:0.399999
G1 X180.32 Y124.056 E.15995 ; perimeter
G1 X180.292 Y124.225 E.00536 ; perimeter
G1 X180.111 Y124.474 E.00963 ; perimeter
G1 X179.981 Y124.545 E.00464 ; perimeter
G1 X179.916 Y124.557 E.00207 ; perimeter
G1 X179.797 Y124.23 F30000 ; move to first perimeter point
;TYPE:External perimeter
G1 F4800
G1 X165.366 Y124.23 E.45163 ; perimeter
G1 X165.235 Y124.171 E.0045 ; perimeter
G1 X165.192 Y124.056 E.00384 ; perimeter
G1 X165.192 Y109.624 E.45166 ; perimeter
G1 X165.235 Y109.509 E.00384 ; perimeter
G1 X165.366 Y109.45 E.0045 ; perimeter
G1 X179.797 Y109.45 E.45163 ; perimeter
G1 X179.92 Y109.501 E.00417 ; perimeter
G1 X179.972 Y109.624 E.00418 ; perimeter
G1 X179.972 Y124.056 E.45166 ; perimeter
G1 X179.902 Y124.195 E.00487 ; perimeter
G1 X179.854 Y124.211 E.00158 ; perimeter
G1 X179.455 Y124.227 F30000 ; move inwards before travel
G1 E-.75 F3000 ; retract
G1 X199.049 Y133.879 F30000 ; move to first perimeter point
G1 E.75 F1800 ;  ; unretract
;TYPE:Perimeter
G1 F4800
G1 X198.954 Y133.991 E.0046 ; perimeter
G1 X201.807 Y133.991 E.08929 ; perimeter
G1 X201.98 Y134.021 E.00549 ; perimeter
G1 X202.139 Y134.11 E.0057 ; perimeter
G1 X202.275 Y134.28 E.00681 ; perimeter
G1 X202.33 Y134.514 E.00752 ; perimeter
G1 X202.33 Y141.966 E.23322 ; perimeter
G1 X202.269 Y142.212 E.00793 ; perimeter
G1 X202.121 Y142.384 E.0071 ; perimeter
G1 X201.954 Y142.467 E.00584 ; perimeter
G1 X201.803 Y142.488 E.00477 ; perimeter
G1 X181.356 Y142.488 E.6399 ; perimeter
G1 X181.176 Y142.457 E.00572 ; perimeter
;WIDTH:0.444075
G1 X180.987 Y142.26 E.00962 ; perimeter
;WIDTH:0.48815
G1 X180.797 Y142.064 E.0107 ; perimeter
G1 X180.792 Y141.966 E.00385 ; perimeter
;WIDTH:0.482246
G1 X180.792 Y134.514 E.28826 ; perimeter
G1 X180.917 Y134.305 E.00942 ; perimeter
;WIDTH:0.441123
G1 X181.042 Y134.096 E.00852 ; perimeter
;WIDTH:0.399999
G1 X181.356 Y133.991 E.01036 ; perimeter
G1 X182.082 Y133.991 E.02272 ; perimeter
G1 X184.279 Y133.991 E.06876 ; perimeter
G1 X183.843 Y133.556 E.01927 ; perimeter
G1 X183.843 Y119.124 E.45166 ; perimeter
G1 X184.209 Y118.688 E.01782 ; perimeter
G1 X181.356 Y118.688 E.08929 ; perimeter
G1 X181.042 Y118.584 E.01035 ; perimeter
;WIDTH:0.444075
G1 X180.92 Y118.424 E.00709 ; perimeter
;WIDTH:0.48815
G1 X180.797 Y118.264 E.00791 ; perimeter
G1 X180.792 Y118.166 E.00385 ; perimeter
;WIDTH:0.482246
G1 X180.792 Y110.714 E.28826 ; perimeter
G1 X180.984 Y110.469 E.01204 ; perimeter
;WIDTH:0.441123
G1 X181.176 Y110.223 E.01092 ; perimeter
;WIDTH:0.399999
G1 X181.356 Y110.191 E.00572 ; perimeter
G1 X201.807 Y110.191 E.64003 ; perimeter
G1 X201.954 Y110.212 E.00465 ; perimeter
G1 X202.121 Y110.296 E.00585 ; perimeter
G1 X202.269 Y110.468 E.0071 ; perimeter
G1 X202.33 Y110.714 E.00793 ; perimeter
G1 X202.33 Y118.166 E.23322 ; perimeter
G1 X202.275 Y118.4 E.00752 ; perimeter
G1 X202.139 Y118.569 E.00679 ; perimeter
G1 X201.98 Y118.659 E.00572 ; perimeter
G1 X201.807 Y118.688 E.00549 ; perimeter
G1 X198.884 Y118.688 E.09148 ; perimeter
G1 X199.32 Y119.124 E.0193 ; perimeter
G1 X199.32 Y133.556 E.45166 ; perimeter
G1 X199.087 Y133.833 E.01133 ; perimeter
G1 X198.972 Y133.556 F30000 ; move to first perimeter point
;TYPE:External perimeter
;WIDTH:0.444794
G1 F4800
G1 X198.927 Y133.635 E.00321 ; perimeter
;WIDTH:0.489589
G1 X198.883 Y133.714 E.00356 ; perimeter
;WIDTH:0.534383
G1 X198.839 Y133.793 E.00392 ; perimeter
G1 X198.797 Y133.795 E.00182 ; perimeter
;WIDTH:0.530752
G1 X195.537 Y133.795 E.1403 ; perimeter
G1 X195.537 Y134.274 E.02062 ; perimeter
G1 X198.797 Y134.274 E.1403 ; perimeter
G1 X199.117 Y134.296 E.0138 ; perimeter
